Catalina-light/apps/scalable/audio-tag-tool.svg

<?xml version="1.0" encoding="UTF-8" standalone="no"?>
<svg
   xmlns:dc="http://purl.org/dc/elements/1.1/"
   xmlns:cc="http://creativecommons.org/ns#"
   xmlns:rdf="http://www.w3.org/1999/02/22-rdf-syntax-ns#"
   xmlns:svg="http://www.w3.org/2000/svg"
   xmlns="http://www.w3.org/2000/svg"
   xmlns:xlink="http://www.w3.org/1999/xlink"
   xmlns:sodipodi="http://sodipodi.sourceforge.net/DTD/sodipodi-0.dtd"
   xmlns:inkscape="http://www.inkscape.org/namespaces/inkscape"
   height="136.53333"
   viewBox="0 0 136.53333 136.53333"
   width="136.53333"
   version="1.1"
   id="svg59"
   sodipodi:docname="audio-tag-tool.svg"
   inkscape:version="0.92.4 5da689c313, 2019-01-14">
  <metadata
     id="metadata65">
    <rdf:RDF>
      <cc:Work
         rdf:about="">
        <dc:format>image/svg+xml</dc:format>
        <dc:type
           rdf:resource="http://purl.org/dc/dcmitype/StillImage" />
        <dc:title></dc:title>
      </cc:Work>
    </rdf:RDF>
  </metadata>
  <defs
     id="defs63">
    <linearGradient
       inkscape:collect="always"
       id="linearGradient857">
      <stop
         style="stop-color:#75eacb;stop-opacity:1"
         offset="0"
         id="stop853" />
      <stop
         id="stop979"
         offset="0.08903538"
         style="stop-color:#54adca;stop-opacity:1;" />
      <stop
         id="stop975"
         offset="0.43186092"
         style="stop-color:#2e64c9;stop-opacity:1" />
      <stop
         style="stop-color:#7e75e2;stop-opacity:1;"
         offset="0.78143221"
         id="stop977" />
      <stop
         style="stop-color:#db89ff;stop-opacity:1"
         offset="1"
         id="stop855" />
    </linearGradient>
    <linearGradient
       inkscape:collect="always"
       xlink:href="#linearGradient857"
       id="linearGradient859"
       x1="70.437424"
       y1="-9.8190279"
       x2="79.908531"
       y2="137.96426"
       gradientUnits="userSpaceOnUse" />
  </defs>
  <sodipodi:namedview
     pagecolor="#ffffff"
     bordercolor="#666666"
     borderopacity="1"
     objecttolerance="10"
     gridtolerance="10"
     guidetolerance="10"
     inkscape:pageopacity="0"
     inkscape:pageshadow="2"
     inkscape:window-width="1920"
     inkscape:window-height="1026"
     id="namedview61"
     showgrid="false"
     inkscape:zoom="1.7285157"
     inkscape:cx="92.671721"
     inkscape:cy="52.308143"
     inkscape:window-x="0"
     inkscape:window-y="30"
     inkscape:window-maximized="1"
     inkscape:current-layer="svg59"
     showguides="false" />
  <linearGradient
     id="a">
    <stop
       offset="0"
       stop-color="#9760ef"
       id="stop2" />
    <stop
       offset="1"
       stop-color="#c054f2"
       stop-opacity="0"
       id="stop4" />
  </linearGradient>
  <linearGradient
     id="b">
    <stop
       offset="0"
       stop-color="#17c7e7"
       id="stop7" />
    <stop
       offset="1"
       stop-color="#c054f2"
       stop-opacity="0"
       id="stop9" />
  </linearGradient>
  <linearGradient
     id="c"
     gradientUnits="userSpaceOnUse"
     x1="62.04421"
     x2="66.81698"
     y1="5.831234"
     y2="47.148641">
    <stop
       offset="0"
       stop-color="#e83c2b"
       id="stop12" />
    <stop
       offset="1"
       stop-color="#c054f2"
       stop-opacity=".792157"
       id="stop14" />
  </linearGradient>
  <linearGradient
     id="d"
     gradientUnits="userSpaceOnUse"
     x1="88.22553"
     x2="38.18116"
     xlink:href="#b"
     y1="119.556361"
     y2="35.285226"
     gradientTransform="translate(-227.27608,-22.607353)" />
  <linearGradient
     id="e"
     gradientUnits="userSpaceOnUse"
     x1="61.6262"
     x2="95.3216"
     y1="48.640058"
     y2="103.021981">
    <stop
       offset="0"
       stop-color="#f66456"
       id="stop18" />
    <stop
       offset="1"
       stop-color="#d9493e"
       stop-opacity="0"
       id="stop20" />
  </linearGradient>
  <linearGradient
     id="f"
     gradientUnits="userSpaceOnUse"
     x1="32.31499"
     x2="61.76681"
     xlink:href="#a"
     y1="92.483823"
     y2="57.318029" />
  <linearGradient
     id="g"
     gradientUnits="userSpaceOnUse"
     x1="96.53194"
     x2="61.76681"
     xlink:href="#b"
     y1="97.690601"
     y2="59.053621" />
  <linearGradient
     id="h"
     gradientUnits="userSpaceOnUse"
     x1="139.34325"
     x2="61.76681"
     xlink:href="#a"
     y1="-7.023515"
     y2="59.053621" />
  <filter
     id="i"
     color-interpolation-filters="sRGB"
     height="1.108812"
     width="1.139866"
     x="-.069933"
     y="-.054406">
    <feGaussianBlur
       stdDeviation="1.9764485"
       id="feGaussianBlur26" />
  </filter>
  <path
     style="color:#000000;font-style:normal;font-variant:normal;font-weight:normal;font-stretch:normal;font-size:medium;line-height:normal;font-family:sans-serif;font-variant-ligatures:normal;font-variant-position:normal;font-variant-caps:normal;font-variant-numeric:normal;font-variant-alternates:normal;font-feature-settings:normal;text-indent:0;text-align:start;text-decoration:none;text-decoration-line:none;text-decoration-style:solid;text-decoration-color:#000000;letter-spacing:normal;word-spacing:normal;text-transform:none;writing-mode:lr-tb;direction:ltr;text-orientation:mixed;dominant-baseline:auto;baseline-shift:baseline;text-anchor:start;white-space:normal;shape-padding:0;clip-rule:nonzero;display:inline;overflow:visible;visibility:visible;opacity:1;isolation:auto;mix-blend-mode:normal;color-interpolation:sRGB;color-interpolation-filters:linearRGB;solid-color:#000000;solid-opacity:1;vector-effect:none;fill:url(#linearGradient859);fill-opacity:1;fill-rule:nonzero;stroke:none;stroke-width:6;stroke-linecap:butt;stroke-linejoin:miter;stroke-miterlimit:4;stroke-dasharray:none;stroke-dashoffset:0;stroke-opacity:1;color-rendering:auto;image-rendering:auto;shape-rendering:auto;text-rendering:auto;enable-background:accumulate"
     d="m 68.113281,2.2167969 c -36.979431,0 -67.0214841,30.0420531 -67.0214841,67.0214841 0,36.979429 30.0420531,67.021489 67.0214841,67.021489 36.979429,0 67.021489,-30.04206 67.021489,-67.021489 0,-36.979431 -30.04206,-67.0214841 -67.021489,-67.0214841 z"
     id="circle29"
     inkscape:connector-curvature="0"
     sodipodi:nodetypes="sssss" />
  <path
     style="opacity:1;fill:#ffffff;fill-opacity:1;stroke:none;stroke-width:3.79999995;stroke-linecap:round;stroke-linejoin:round;stroke-miterlimit:4;stroke-dasharray:none;stroke-dashoffset:0;stroke-opacity:0.05323193;paint-order:fill markers stroke"
     d="M 68.113281 8.78125 C 34.723662 8.7809529 7.6559529 35.848662 7.65625 69.238281 C 7.655954 102.6279 34.723662 129.69561 68.113281 129.69531 C 101.5029 129.69561 128.57061 102.6279 128.57031 69.238281 C 128.57061 35.848662 101.5029 8.780954 68.113281 8.78125 z M 76.257812 36.466797 L 94.728516 36.466797 C 98.114786 36.466797 100.88465 39.236575 100.88477 42.623047 L 100.88477 61.09375 C 100.88477 64.479675 98.92565 69.209494 96.53125 71.603516 L 67.921875 100.21484 C 65.527363 102.60941 61.609235 102.60941 59.214844 100.21484 L 37.136719 78.136719 C 34.742327 75.742701 34.742327 71.824253 37.136719 69.429688 L 65.748047 40.818359 C 68.142435 38.424341 72.871285 36.466797 76.257812 36.466797 z M 86.546875 44.658203 C 83.153218 44.658203 80.402344 47.411113 80.402344 50.804688 C 80.402344 54.198262 83.153218 56.949219 86.546875 56.949219 C 89.940535 56.949219 92.693359 54.198262 92.693359 50.804688 C 92.693359 47.411112 89.940535 44.658203 86.546875 44.658203 z "
     id="path839" />
  <circle
     cx="-129.41727"
     cy="29.494062"
     r="0"
     id="circle4299"
     style="fill:url(#a-5);stroke-width:1.50101101" />
  <circle
     cx="-174.7392"
     cy="22.417198"
     r="0"
     id="circle895"
     style="fill:url(#d-3);stroke-width:2" />
  <circle
     cx="-235.55243"
     cy="22.495079"
     r="0"
     id="circle899"
     style="fill:url(#b-6);stroke-width:2" />
</svg>

<svg width="136.53" height="136.53" version="1.1" viewBox="0 0 136.53 136.53" xmlns="http://www.w3.org/2000/svg">
<defs>
<linearGradient id="linearGradient859" x1="70.437" x2="79.909" y1="-9.819" y2="137.96" gradientUnits="userSpaceOnUse"/>
</defs>
<filter x="-.069933" y="-.054406" width="1.1399" height="1.1088" color-interpolation-filters="sRGB">
<feGaussianBlur stdDeviation="1.9764485"/>
</filter>
<path d="m68.113 2.2168c-36.979 0-67.021 30.042-67.021 67.021 0 36.979 30.042 67.021 67.021 67.021 36.979 0 67.021-30.042 67.021-67.021 0-36.979-30.042-67.021-67.021-67.021z" color="#000000" color-rendering="auto" dominant-baseline="auto" fill="url(#linearGradient859)" image-rendering="auto" shape-rendering="auto" solid-color="#000000" style="font-feature-settings:normal;font-variant-alternates:normal;font-variant-caps:normal;font-variant-ligatures:normal;font-variant-numeric:normal;font-variant-position:normal;isolation:auto;mix-blend-mode:normal;shape-padding:0;text-decoration-color:#000000;text-decoration-line:none;text-decoration-style:solid;text-indent:0;text-orientation:mixed;text-transform:none;white-space:normal"/>
<path d="m68.113 8.7812c-33.39-2.971e-4 -60.457 27.067-60.457 60.457-2.96e-4 33.39 27.067 60.457 60.457 60.457 33.39 3e-4 60.457-27.067 60.457-60.457 3e-4 -33.39-27.067-60.457-60.457-60.457zm8.1445 27.686h18.471c3.3863 0 6.1561 2.7698 6.1563 6.1562v18.471c0 3.3859-1.9591 8.1157-4.3535 10.51l-28.609 28.611c-2.3945 2.3946-6.3126 2.3946-8.707 0l-22.078-22.078c-2.3944-2.394-2.3944-6.3125 0-8.707l28.611-28.611c2.3944-2.394 7.1232-4.3516 10.51-4.3516zm10.289 8.1914c-3.3937 0-6.1445 2.7529-6.1445 6.1465 0 3.3936 2.7509 6.1445 6.1445 6.1445 3.3937 0 6.1465-2.751 6.1465-6.1445 0-3.3936-2.7528-6.1465-6.1465-6.1465z" fill="#fff" style="paint-order:fill markers stroke"/>
<circle cx="-129.42" cy="29.494" r="0" fill="url(#a-5)" stroke-width="1.501"/>
<circle cx="-174.74" cy="22.417" r="0" fill="url(#d-3)" stroke-width="2"/>
<circle cx="-235.55" cy="22.495" r="0" fill="url(#b-6)" stroke-width="2"/>
</svg>
